X:1
T:Title
%%score { ( 1 3 4 ) | ( 2 5 6 ) }
L:1/8
M:4/4
K:Ab
V:1 treble nm="Grand Piano"
V:3 treble 
V:4 treble 
V:2 bass 
V:5 bass 
V:6 bass 
V:1
 z4 z2[Q:1/4=96] [A,C][B,D] | [CE][Ec] [Ec]>[Ec] [Ec] [CA]2 [CE] |[M:7/8] [DF][FA][FA]>[DF] [FA]3 | %3
[M:1/8] [DF] |[M:4/4] [CE][CE][CA]B c c2 [EA] |[M:3/4] [EB][EB] [=DB][Dc] [EB]2 |[M:3/8] [Ee]3 | %7
[M:4/4] [Ec] [Ec]2 [Fd] [Ec]2 [DB]2 | A6 z2 | [DF] [Fd]2 [DF] [CE] [Ec]2 [EA] | %10
 [EB]2 z A, B2 [Ge]>[Fd] | [Ec]>[Ec] [Ec][Ec] [DB] [CA]2 [EG] | [DF][FA] [Fd]>[DF] [CE]3 [CE] | %13
[M:35/32] [DF]2 [FA][=EB][_Ec]/ [Ee]2- [Ee]/[Q:1/4=93](3:2:4[_Ge]3/4-[Q:1/4=87][Ge]/8[=Ed]3/2-[Ed]/4[Q:1/4=95][Q:1/4=92][Q:1/4=90][Q:1/4=89][Q:1/4=86][Q:1/4=84][Q:1/4=83][Q:1/4=81][Q:1/4=80][Q:1/4=78][Q:1/4=77][Q:1/4=75][Q:1/4=74] | %14
[M:7/8] [Ec]2- [Ec]/4 z/4 z/ z z z2 |] %15
V:2
 z4 z2 [A,,E,][A,,E,] | [A,,A,][A,,A,] [A,,A,]>[A,,A,] [A,,A,] [A,,A,]2 [A,,A,] | %2
[M:7/8] [D,A,][D,D][D,D]>[D,A,] [D,D]3 |[M:1/8] [D,A,] | %4
[M:4/4] [A,,A,][A,,A,][A,,A,][E,G,D] [A,E] [A,E]2 [C,A,] | %5
[M:3/4] [E,G,][E,G,] [B,,F,][B,,A,] [E,G,]2 |[M:3/8] [E,G,]3 | %7
[M:4/4] [A,,A,] [A,,A,]2 [D,A,] [E,A,]2 [E,G,]2 | [A,,E,]2 [A,,F,]2 [A,,E,]2 [A,,A,][C,A,] | %9
 [D,A,] [D,A,]2 [D,A,] [A,,A,] [A,,A,]2 [C,A,] | [E,G,]2 .[B,,F,]2 [E,G,E]2 [E,B,]>[E,G,] | %11
 [A,,A,]>[A,,A,] [A,,A,][A,,A,] [E,G,] [F,A,]2 [C,A,] | %12
 [D,A,][D,D] [D,A,]>[D,A,] [A,,A,]3 [A,,A,] | %13
[M:35/32] [D,A,]2 [D,D][D,A,][A,,A,]/ [C,A,]2- [C,A,]/(3:2:4[A,,A,]3/4-[A,,A,]/8[D,A,]3/2-[D,A,]/4 | %14
[M:7/8] A,2- A,/4 z/4 z/ z z z2 |] %15
V:3
 x8 | x8 |[M:7/8] x7 |[M:1/8] x |[M:4/4] x8 |[M:3/4] x6 |[M:3/8] x3 |[M:4/4] x8 | %8
 C2 D2 C2 [CA][EG] | x8 | z2 [=DB]2 z4 | x8 | x8 |[M:35/32] x35/4 | %14
[M:7/8] z2 [DB]2- [DB]/4 z/4 z/ z2 |] %15
V:4
 x8 | x8 |[M:7/8] x7 |[M:1/8] x |[M:4/4] x8 |[M:3/4] x6 |[M:3/8] x3 |[M:4/4] x8 | x8 | x8 | x8 | %11
 x8 | x8 |[M:35/32] x35/4 |[M:7/8] z z z2 [CA]3 |] %15
V:5
 x8 | x8 |[M:7/8] x7 |[M:1/8] x |[M:4/4] x8 |[M:3/4] x6 |[M:3/8] x3 |[M:4/4] x8 | x8 | x8 | x8 | %11
 x8 | x8 |[M:35/32] x35/4 |[M:7/8] z2 [E,G,]2- [E,G,]/4 z/4 z/ z2 |] %15
V:6
 x8 | x8 |[M:7/8] x7 |[M:1/8] x |[M:4/4] x8 |[M:3/4] x6 |[M:3/8] x3 |[M:4/4] x8 | x8 | x8 | x8 | %11
 x8 | x8 |[M:35/32] x35/4 |[M:7/8] E,2 z2 [A,,A,]3 |] %15

